X: 3806
T: Black Bear, The
R: jig
M: 6/8
K: Eminor
|:BAB EDE|BAB def|~e3 edB|dBA AGA|
BAB EDE|BAB def|edB A2B|1 GFD E2c:|2 GFD E2f||
|:gfg e2f|~g3 bge|~g3 efg|fdf afd|
gfg e2f|~g3 bag|fag fed|1 efd e2f:|2 efd e2c||

